assets/images/es.svg

<svg height="512pt" viewBox="0 -41 512 512" width="512pt" xmlns="http://www.w3.org/2000/svg"><path d="m407 0h-302c-57.898438 0-105 47.101562-105 105v168.945312c0 57.898438 47.101562 105 105 105h15.582031l36.519531 46.332032c2.847657 3.609375 7.1875 5.714844 11.78125 5.714844s8.9375-2.105469 11.78125-5.714844l36.519532-46.332032h189.816406c57.898438 0 105-47.101562 105-105v-168.945312c0-57.898438-47.101562-105-105-105zm0 0" fill="#ff337a"/><path d="m0 117.957031h512v143.074219h-512zm0 0" fill="#ffe95c"/><path d="m407 0h-151v378.945312h151c57.898438 0 105-47.101562 105-105v-168.945312c0-57.898438-47.101562-105-105-105zm0 0" fill="#d1005b"/><path d="m256 117.957031h256v143.074219h-256zm0 0" fill="#fcc733"/></svg>

<svg height="512pt" viewBox="0 -41 512 512" width="512pt" xmlns="http://www.w3.org/2000/svg"><path d="M407 0H105C47.102 0 0 47.102 0 105v168.945c0 57.899 47.102 105 105 105h15.582l36.52 46.332a15.001 15.001 0 0023.563 0l36.519-46.332H407c57.898 0 105-47.101 105-105V105C512 47.102 464.898 0 407 0zm0 0" fill="#ff337a"/><path d="M0 117.957h512v143.074H0zm0 0" fill="#ffe95c"/><path d="M407 0H256v378.945h151c57.898 0 105-47.101 105-105V105C512 47.102 464.898 0 407 0zm0 0" fill="#d1005b"/><path d="M256 117.957h256v143.074H256zm0 0" fill="#fcc733"/></svg>
